assets/features/channel/other/MASARY.svg

<svg width="80" height="80" viewBox="0 0 80 80" fill="none" xmlns="http://www.w3.org/2000/svg">
<rect x="0.5" y="0.5" width="79" height="79" rx="7.5" fill="white"/>
<rect x="0.5" y="0.5" width="79" height="79" rx="7.5" stroke="#EEEEEE"/>
<path d="M34.9956 48.1872C33.4847 46.4605 33.0051 44.398 33.125 42.2156C33.3169 38.1625 34.9477 34.5891 37.0101 31.1836C37.3699 31.1117 37.6337 31.3515 37.9215 31.4714C38.7848 31.8551 39.6962 32.071 40.6555 31.8791C40.8953 31.8312 41.255 31.7832 41.231 31.4474C41.231 31.1357 40.8953 31.0637 40.6315 31.0397C40.0079 30.9678 39.3844 30.9438 38.7609 30.8239C38.3292 30.752 37.7776 30.8239 37.5378 30.2963C37.7776 29.9126 37.9934 29.5528 38.2332 29.1691C38.521 29.0252 38.7369 29.2171 38.9767 29.289C40.1279 29.6248 41.255 29.9845 42.4781 29.7447C43.0297 29.6488 43.4134 29.2171 43.941 29.0972C44.013 29.289 44.1089 29.4569 44.1809 29.6488C43.8451 30.1044 43.8451 30.6081 43.989 31.1357C44.4447 33.0543 45.5239 34.5412 46.9868 35.8362C48.4977 37.1793 50.2244 38.2585 51.8552 39.4336C52.119 39.6255 52.4068 39.7933 52.5267 40.1291C53.1023 42.0477 53.3661 44.0142 52.6946 45.9568C51.8552 48.499 50.1045 50.2257 47.6104 51.1131C44.2049 52.3601 40.8233 52.2642 37.5617 50.5375C36.6504 49.7461 36.6744 48.6908 36.7943 47.6356C37.0581 45.0455 39.2165 42.6712 41.7587 42.0957C42.3822 41.9518 42.9818 42.0237 43.5573 42.2635C44.6845 42.7192 45.0203 44.0382 44.3248 45.1174C43.7012 46.1007 42.8139 46.7962 41.7107 47.1799C41.4469 47.2759 41.1591 47.3478 40.9193 47.5157C40.7514 47.6356 40.6315 47.8035 40.6794 48.0193C40.7274 48.2352 40.8713 48.3551 41.0871 48.3791C41.3749 48.427 41.6627 48.427 41.9265 48.3791C44.5406 48.0673 46.8189 47.108 48.3058 44.8297C49.505 42.959 49.2412 40.8965 47.7063 39.5535C46.6511 38.6182 45.428 38.5463 44.1329 38.7621C42.0225 39.1218 40.2478 40.1771 38.7129 41.592C36.9382 43.2468 35.6671 45.2134 35.2834 47.6596C35.2594 47.8514 35.2354 48.0673 35.0436 48.1632L34.9956 48.1872Z" fill="#AECA08"/>
<path d="M34.9954 48.1873C35.3791 43.5347 39.8159 39.3138 44.1327 38.5703C45.8355 38.2586 47.3703 38.6183 48.4255 40.1052C49.4568 41.5681 49.3369 43.127 48.5694 44.6619C47.9699 45.861 46.9626 46.7244 45.7875 47.3479C44.3725 48.1154 42.8856 48.6669 41.2548 48.595C40.8471 48.595 40.4394 48.547 40.3675 48.0194C40.2955 47.4678 40.7032 47.2999 41.0869 47.18C42.2141 46.8683 43.1494 46.2687 43.8689 45.3334C44.3965 44.6619 44.6843 43.9424 44.2286 43.103C43.8449 42.4315 42.9336 42.0718 41.9983 42.2157C39.6 42.5754 37.5375 44.6139 36.986 47.1321C36.7461 48.2832 36.7701 49.3864 37.4416 50.3937C38.0652 50.8014 38.5448 51.377 39.2163 51.7127C41.5426 52.8879 43.9648 53.1037 46.459 52.4562C49.4808 51.6648 52.1668 50.1778 54.4451 48.0674C55.1886 47.3719 55.7881 46.5325 56.1719 45.5732C56.5556 44.5899 56.2678 43.7505 55.5723 43.0071C54.7809 42.1677 53.9415 41.3763 53.0062 40.7048C52.7424 40.5129 52.4546 40.345 52.3107 40.0333C51.4713 39.4337 50.6079 38.8341 49.7686 38.2346C48.4016 37.2993 47.1305 36.268 45.9554 35.0929C44.7802 33.9177 44.0608 32.5028 43.725 30.9199C43.6291 30.4643 43.4612 29.8887 44.1327 29.6729C44.8762 29.9367 45.2839 30.5842 45.8115 31.0878C48.4016 33.4621 51.2794 35.5486 53.9415 37.8509C54.637 38.4744 55.4044 39.026 56.004 39.7455C59.5054 43.7985 58.8579 49.3864 54.3492 52.696C50.8957 55.2142 47.0106 56.5812 42.6698 56.1495C39.6 55.8377 37.0579 54.5906 35.595 51.7127C35.0434 50.6095 34.9954 49.4104 34.9714 48.2113L34.9954 48.1873Z" fill="#2E276C"/>
<path d="M34.8756 30.5843C33.9882 31.4477 33.1009 32.2871 32.2375 33.1744C29.6235 35.8844 27.3211 38.8583 25.3786 42.0959C24.6831 43.2471 24.1555 44.4941 23.9876 45.8372C23.8437 47.0363 24.1075 48.1155 24.8749 49.0748C25.7863 50.202 26.9134 51.0653 28.1605 51.8328C29.4556 52.6242 30.7266 53.4636 31.9258 54.4229C34.2281 56.2455 34.7557 58.6678 34.1082 61.3778C33.7724 62.7688 32.7412 63.6082 31.3262 63.9439C30.3429 64.1598 29.8873 63.7521 30.0791 62.7448C30.295 61.6176 30.5108 60.4665 30.9185 59.4112C31.4941 57.9243 30.9905 56.941 29.7674 56.0777C28.4963 55.1903 27.1293 54.4948 25.8103 53.6794C24.3234 52.7681 22.9803 51.7368 22.2129 50.106C21.3016 48.1395 21.5174 46.125 22.141 44.1344C23.1242 41.0647 24.9469 38.5225 27.1053 36.1962C29.1198 34.0618 31.4221 32.2871 33.9163 30.7522C34.1082 30.6323 34.3 30.5364 34.4919 30.4644C34.5638 30.4404 34.6598 30.4644 34.7317 30.4404L34.8516 30.5843H34.8756Z" fill="#2E276C"/>
<path d="M27.8487 45.046C27.9686 42.6478 28.832 40.1536 30.223 37.8033C31.6379 35.4051 33.5325 33.3905 35.3552 31.3041C35.4511 31.1842 35.595 30.9683 35.7629 31.1122C35.9308 31.2561 35.7629 31.448 35.6909 31.5919C35.0194 32.9109 34.228 34.158 33.4606 35.4291C32.1895 37.5635 31.2302 39.8418 30.8225 42.312C30.2469 45.8614 31.3501 48.9072 33.6524 51.5932C34.252 52.2887 34.8516 52.9842 35.4271 53.6797C35.571 53.8476 35.7389 54.0154 35.7869 54.2073C35.8828 54.5431 35.9308 54.9268 35.3552 54.8548C35.1393 54.8308 34.9235 54.8548 34.7077 54.7589C31.7338 53.3439 29.3356 51.3774 28.2804 48.1158C27.9926 47.2284 27.8247 46.2931 27.8487 45.046Z" fill="#2E276C"/>
<path d="M39.7678 20.3199C39.1682 20.1281 38.7845 19.6484 38.3048 19.2407C37.9211 18.905 37.4894 18.3774 36.8899 18.6172C36.2663 18.881 36.3143 19.5525 36.3143 20.1041C36.2903 21.639 36.8659 23.03 37.2496 24.4689C37.3216 24.7807 37.4175 25.0924 37.3935 25.4282C37.3455 26.0038 36.698 26.5554 36.1464 26.5314C35.8826 26.5314 35.8347 26.3156 35.7627 26.1477C34.9953 24.1092 34.3957 22.0467 34.2518 19.8403C34.2278 19.2887 34.2518 18.7611 34.3477 18.2095C34.6835 16.2909 36.674 15.4035 38.3528 16.4348C38.9284 16.7945 39.408 17.2742 39.8877 17.7298C40.3913 18.2095 40.9429 18.3534 41.6144 18.2095C42.7416 17.9457 43.8687 17.6819 45.0199 17.6339C46.219 17.5859 46.6747 17.9457 46.9625 19.0968C47.0104 19.3606 47.0584 19.6005 47.0824 19.8643C47.1783 20.7037 47.562 21.3272 48.3774 21.663C48.5933 21.7589 48.8091 21.8788 49.001 22.0227C49.6245 22.4544 49.7924 22.934 49.3847 23.5816C48.1856 25.3802 46.4588 26.5074 44.4443 27.2269C44.3244 27.2749 44.1805 27.2269 44.0606 27.2269C43.6289 26.9631 43.8448 26.6753 44.0606 26.4355C44.2525 26.2196 44.5403 26.1477 44.8041 26.0278C45.9552 25.5481 46.6987 24.6847 47.2023 23.5816C47.5141 22.91 47.3942 22.5023 46.6987 22.1906C45.8593 21.8069 45.4516 21.2313 45.4036 20.296C45.3317 19.1928 45.1158 19.0968 44.0846 19.5045C43.1972 19.8643 42.3579 20.3439 41.3986 20.4399C40.847 20.4878 40.2714 20.6797 39.7678 20.272V20.3199Z" fill="#2E276C"/>
<path d="M39.7678 20.3201C41.0868 20.5599 42.3099 20.2242 43.4851 19.6486C43.8688 19.4567 44.2525 19.2409 44.7082 19.1929C45.3797 19.097 45.4996 19.1929 45.5476 19.8884C45.5476 20.0803 45.5715 20.2721 45.5715 20.464C45.5715 21.2074 45.9073 21.6871 46.5788 21.9749C47.61 22.4545 47.7779 22.9342 47.2263 23.9414C46.6268 24.9967 45.8833 25.908 44.6362 26.2917C44.2285 26.4116 43.7009 26.6035 44.0367 27.251C43.9887 27.3469 43.9168 27.4429 43.8688 27.5388C42.5018 27.7786 41.1828 28.3062 39.7678 28.1384C39.504 28.1144 39.1922 28.2103 39.0483 27.8506C39.1443 27.6108 39.2402 27.3949 39.3361 27.1551C39.6239 25.2125 39.9837 23.2699 39.6719 21.3034C39.6959 20.9676 39.7198 20.6558 39.7438 20.3201H39.7678Z" fill="#AECA08"/>
<path d="M39.0726 27.8507C40.3916 27.9946 41.6867 27.9466 42.9338 27.5149C43.2455 27.395 43.5573 27.347 43.8691 27.5149C44.3487 28.0425 44.1089 28.5701 43.8691 29.0738C42.8618 30.153 41.5908 30.0331 40.3197 29.8412C39.5762 29.7213 38.8568 29.4575 38.1613 29.1697C37.4658 28.81 36.7463 28.4262 36.0269 27.8267H39.0486L39.0726 27.8507Z" fill="#2E276C"/>
<path d="M37.4897 30.2965C38.2572 30.7761 39.1685 30.6802 40.0079 30.8241C40.3196 30.872 40.6554 30.896 40.9672 30.968C41.231 31.0399 41.4948 31.1598 41.4948 31.4716C41.4948 31.8073 41.231 31.9512 40.9432 32.0232C39.864 32.239 38.8327 32.1191 37.8495 31.6635C37.5617 31.5196 37.2739 31.3517 36.9861 31.2078C36.6024 30.7761 36.0508 30.4164 36.0508 29.6489C36.5544 29.8888 37.0341 30.1046 37.5137 30.3204L37.4897 30.2965Z" fill="#2F286B"/>
<path d="M39.696 21.2792C40.1517 22.0466 40.0557 22.886 39.9838 23.6774C39.8879 24.8525 39.8639 26.0277 39.3603 27.1309C39.0005 25.4281 38.7127 23.7014 38.9046 21.9507C38.9526 21.471 39.1204 21.1592 39.696 21.2792Z" fill="#2F296C"/>
<path d="M52.2867 40.0093C53.7016 40.8727 54.8768 41.9999 55.956 43.223C56.6275 43.9664 56.6755 44.8298 56.2917 45.7172C55.8121 46.8683 55.0207 47.8036 54.0854 48.5711C51.2794 50.9213 48.1377 52.6001 44.4444 52.9119C42.31 53.1038 40.2715 52.696 38.4968 51.425C38.0891 51.1372 37.7294 50.8014 37.4656 50.3697C37.6095 50.3218 37.7054 50.3698 37.8253 50.4417C41.0389 52.1445 44.3485 52.0965 47.6821 50.8734C51.5192 49.4584 53.5577 45.5253 52.6464 41.4483C52.5265 40.9686 52.4306 40.489 52.3107 39.9854L52.2867 40.0093Z" fill="#FEFEFE"/>
<path d="M41.0152 25.9559C41.5908 24.5889 42.1663 23.3179 43.0297 22.1907C43.2216 21.9269 43.4614 21.687 43.7012 21.4952C43.8691 21.3753 44.0849 21.2554 44.3008 21.3993C44.5406 21.5432 44.6125 21.759 44.5646 22.0228C44.5406 22.2386 44.4687 22.4545 44.3967 22.6463C43.8691 23.8694 43.0537 24.8767 41.9745 25.6441C41.7107 25.836 41.4469 26.0039 40.9912 25.9799L41.0152 25.9559Z" fill="#2E276B"/>
</svg>

<svg xmlns="http://www.w3.org/2000/svg" width="80" height="80" fill="none" viewBox="0 0 80 80"><rect width="79" height="79" x=".5" y=".5" fill="#fff" rx="7.5"/><rect width="79" height="79" x=".5" y=".5" stroke="#eee" rx="7.5"/><path fill="#aeca08" d="M34.996 48.187c-1.511-1.726-1.99-3.789-1.871-5.971.192-4.053 1.823-7.627 3.885-11.032.36-.072.624.168.912.287.863.384 1.774.6 2.734.408.24-.048.599-.096.575-.432 0-.311-.336-.383-.6-.407-.623-.072-1.247-.096-1.87-.216-.432-.072-.983 0-1.223-.528.24-.383.455-.743.695-1.127.288-.144.504.048.744.12 1.15.336 2.278.695 3.501.456.552-.096.935-.528 1.463-.648.072.192.168.36.24.552-.336.455-.336.96-.192 1.487.456 1.918 1.535 3.405 2.998 4.7 1.51 1.343 3.237 2.422 4.868 3.598.264.192.552.36.672.695.575 1.919.84 3.885.168 5.828-.84 2.542-2.59 4.269-5.085 5.156-3.405 1.247-6.787 1.151-10.048-.575-.912-.792-.888-1.847-.768-2.902.264-2.59 2.423-4.965 4.965-5.54a2.9 2.9 0 0 1 1.798.168c1.127.455 1.463 1.774.768 2.853a4.96 4.96 0 0 1-2.614 2.063c-.264.096-.552.168-.792.336-.168.12-.287.288-.24.503.048.216.192.336.408.36.288.048.576.048.84 0 2.614-.312 4.892-1.271 6.379-3.55 1.199-1.87.935-3.932-.6-5.276-1.055-.935-2.278-1.007-3.573-.79-2.11.359-3.885 1.414-5.42 2.829-1.775 1.655-3.046 3.621-3.43 6.068-.024.191-.048.407-.24.503z"/><path fill="#2e276c" d="M34.995 48.187c.384-4.652 4.82-8.873 9.138-9.617 1.703-.311 3.237.048 4.292 1.535 1.032 1.463.912 3.022.144 4.557-.6 1.199-1.606 2.062-2.782 2.686-1.414.767-2.901 1.319-4.532 1.247-.408 0-.816-.048-.888-.576-.072-.551.336-.72.72-.839 1.127-.312 2.062-.911 2.782-1.847.528-.671.815-1.39.36-2.23-.384-.672-1.295-1.031-2.23-.887-2.399.36-4.462 2.398-5.013 4.916-.24 1.151-.216 2.254.456 3.262.623.407 1.103.983 1.774 1.319 2.327 1.175 4.749 1.39 7.243.743a18.6 18.6 0 0 0 7.986-4.389 7 7 0 0 0 1.727-2.494c.384-.983.096-1.822-.6-2.566-.791-.84-1.63-1.63-2.566-2.302-.264-.192-.551-.36-.695-.672-.84-.6-1.703-1.199-2.542-1.798a26.6 26.6 0 0 1-3.814-3.142c-1.175-1.175-1.894-2.59-2.23-4.173-.096-.456-.264-1.031.408-1.247.743.264 1.15.911 1.678 1.415 2.59 2.374 5.468 4.46 8.13 6.763.696.623 1.463 1.175 2.063 1.895 3.501 4.052 2.854 9.64-1.655 12.95-3.453 2.518-7.338 3.885-11.68 3.454-3.069-.312-5.611-1.56-7.074-4.437-.552-1.104-.6-2.303-.624-3.502zm-.119-17.603c-.888.864-1.775 1.703-2.639 2.59a49.6 49.6 0 0 0-6.858 8.922c-.696 1.151-1.224 2.398-1.391 3.741-.144 1.2.12 2.278.887 3.238.911 1.127 2.038 1.99 3.285 2.758 1.296.791 2.567 1.63 3.766 2.59 2.302 1.822 2.83 4.245 2.182 6.955-.336 1.39-1.367 2.23-2.782 2.566-.983.216-1.439-.192-1.247-1.2.216-1.126.432-2.277.84-3.333.575-1.487.072-2.47-1.152-3.333-1.27-.888-2.638-1.583-3.957-2.399-1.487-.91-2.83-1.942-3.597-3.573-.911-1.967-.696-3.981-.072-5.972.983-3.07 2.806-5.611 4.964-7.938 2.015-2.134 4.317-3.909 6.811-5.444q.288-.18.576-.288c.072-.024.168 0 .24-.024l.12.144z"/><path fill="#2e276c" d="M27.849 45.046c.12-2.398.983-4.892 2.374-7.243 1.415-2.398 3.31-4.412 5.132-6.499.096-.12.24-.336.408-.192s0 .336-.072.48c-.672 1.319-1.463 2.566-2.23 3.837-1.271 2.134-2.23 4.413-2.638 6.883-.576 3.55.527 6.595 2.83 9.281.599.696 1.199 1.391 1.774 2.087.144.168.312.335.36.527.096.336.144.72-.432.648-.216-.024-.431 0-.647-.096-2.974-1.415-5.372-3.382-6.428-6.643-.287-.888-.455-1.823-.431-3.07M39.768 20.32c-.6-.192-.983-.672-1.463-1.08-.384-.335-.816-.863-1.415-.623-.624.264-.576.935-.576 1.487-.024 1.535.552 2.926.936 4.365.072.312.167.623.144.96-.048.575-.696 1.126-1.248 1.102-.263 0-.311-.215-.383-.383-.768-2.039-1.367-4.101-1.511-6.308-.024-.551 0-1.079.096-1.63.336-1.92 2.326-2.807 4.005-1.775.575.36 1.055.84 1.535 1.295.503.48 1.055.623 1.726.48 1.128-.264 2.255-.528 3.406-.576 1.199-.048 1.655.312 1.942 1.463.048.264.096.503.12.767.096.84.48 1.463 1.295 1.799.216.096.432.216.624.36.624.431.791.911.384 1.559-1.2 1.798-2.926 2.925-4.94 3.645-.12.048-.264 0-.384 0-.432-.264-.216-.552 0-.791.191-.216.48-.288.743-.408 1.151-.48 1.895-1.343 2.398-2.446.312-.672.192-1.08-.503-1.391-.84-.384-1.247-.96-1.295-1.895-.072-1.103-.288-1.2-1.32-.791-.887.36-1.726.839-2.685.935-.552.048-1.128.24-1.631-.168z"/><path fill="#aeca08" d="M39.768 20.32c1.319.24 2.542-.096 3.717-.671.384-.192.767-.408 1.223-.456.672-.096.792 0 .84.695 0 .192.023.384.023.576 0 .743.336 1.223 1.008 1.51 1.031.48 1.199.96.647 1.967-.6 1.056-1.343 1.967-2.59 2.35-.408.12-.935.313-.6.96-.047.096-.12.192-.167.288-1.367.24-2.686.767-4.101.6-.264-.025-.576.071-.72-.288.096-.24.192-.456.288-.696.288-1.943.648-3.885.336-5.852l.072-.983z"/><path fill="#2e276c" d="M39.073 27.85c1.319.145 2.614.097 3.86-.335.313-.12.624-.168.936 0 .48.527.24 1.055 0 1.559-1.007 1.079-2.278.96-3.55.767-.743-.12-1.462-.384-2.158-.671-.695-.36-1.415-.744-2.134-1.343h3.022z"/><path fill="#2f286b" d="M37.49 30.297c.767.48 1.678.383 2.518.527.312.048.647.072.96.144.263.072.527.192.527.504 0 .335-.264.48-.552.551a4.9 4.9 0 0 1-3.093-.36c-.288-.143-.576-.311-.864-.455-.384-.432-.935-.792-.935-1.56.503.24.983.457 1.463.672z"/><path fill="#2f296c" d="M39.696 21.28c.456.767.36 1.606.288 2.397-.096 1.175-.12 2.35-.624 3.454-.36-1.703-.647-3.43-.455-5.18.048-.48.215-.792.791-.672"/><path fill="#fefefe" d="M52.287 40.01c1.415.863 2.59 1.99 3.669 3.213.671.743.72 1.607.336 2.494-.48 1.151-1.271 2.087-2.207 2.854-2.806 2.35-5.947 4.03-9.64 4.34-2.135.193-4.173-.215-5.948-1.486-.408-.288-.768-.624-1.031-1.055.143-.048.24 0 .36.072 3.213 1.703 6.523 1.654 9.856.431 3.837-1.415 5.876-5.348 4.964-9.425-.12-.48-.215-.959-.335-1.463z"/><path fill="#2e276b" d="M41.015 25.956c.576-1.367 1.151-2.638 2.015-3.765a3.7 3.7 0 0 1 .671-.696c.168-.12.384-.24.6-.096.24.144.311.36.264.624a2.7 2.7 0 0 1-.168.623 7.06 7.06 0 0 1-2.422 2.998c-.264.192-.528.36-.984.336z"/></svg>
